assets/images/logo white.svg

<svg width="1200" height="1200" viewBox="0 0 1200 1200" fill="none" xmlns="http://www.w3.org/2000/svg">
<path d="M69.64 535.89L128.81 561.8C136.52 565.11 137.44 569.15 137.44 573.37C137.44 579.25 133.22 583.3 127.34 583.3C123.81 583.275 120.34 582.39 117.23 580.72L42.45 546.36C40.4256 545.459 38.7058 543.991 37.4988 542.132C36.2919 540.274 35.6495 538.106 35.6495 535.89C35.6495 533.674 36.2919 531.506 37.4988 529.648C38.7058 527.789 40.4256 526.321 42.45 525.42L117.23 491.06C120.34 489.39 123.81 488.505 127.34 488.48C133.22 488.48 137.44 492.48 137.44 498.41C137.44 502.63 136.52 506.67 128.81 509.98L69.64 535.89Z" fill="#7232BD"/>
<path d="M155.08 468.09C155.08 455.96 163.35 453.2 171.43 453.2H180.25C189.62 453.2 194.03 456.88 197.16 466.99L223.43 551.88H223.8L249.71 467C252.83 456.89 257.24 453.21 266.61 453.21H275.06C283.15 453.21 291.42 455.97 291.42 468.1V575.58C291.42 583.11 287.74 590.28 278 590.28C268.26 590.28 264.59 583.11 264.59 575.58V493.58H264.22L236.11 581.41C234.11 587.66 229.49 590.23 223.25 590.23C217.01 590.23 212.41 587.66 210.39 581.41L182.27 493.58H181.9V575.58C181.9 583.11 178.23 590.28 168.49 590.28C158.75 590.28 155.08 583.11 155.08 575.58V468.09Z" fill="white"/>
<path d="M406.44 576.87C406.44 584.95 402.76 590.28 394.31 590.28C385.86 590.28 382.18 584.95 382.18 576.87V573.37H381.81C374.28 583.3 364.54 590.28 349.29 590.28C333.12 590.28 315.48 582.19 315.48 555V502.82C315.48 495.65 318.42 489.4 328.89 489.4C339.36 489.4 342.31 495.65 342.31 502.82V549.67C342.31 560.51 347.64 568.23 359.21 568.23C364.711 568.114 369.943 565.828 373.765 561.869C377.587 557.911 379.688 552.602 379.61 547.1V502.82C379.61 495.65 382.55 489.4 393.02 489.4C403.49 489.4 406.44 495.65 406.44 502.82V576.87Z" fill="white"/>
<path d="M463.76 489.4C484.16 489.4 504.76 497.49 504.76 509.8C504.76 516.05 500.54 521.56 493.56 521.56C483.08 521.56 482.72 509.25 465.81 509.25C456.44 509.25 450.38 511.82 450.38 517.52C450.38 523.76 456.44 525.23 464.71 527.07L475.92 529.64C491.17 533.13 509.36 539.57 509.36 558.31C509.36 580.17 488.23 590.31 468.02 590.31C443.76 590.31 423.55 579.47 423.55 566.24C423.55 560.36 426.86 555.03 434.39 555.03C445.97 555.03 447.07 571.57 466.91 571.57C476.47 571.57 482.53 567.34 482.53 561.83C482.53 555.03 476.65 553.93 467.1 551.54L451.29 547.68C435.68 543.82 423.55 537.39 423.55 519.38C423.52 497.49 445.2 489.4 463.76 489.4Z" fill="white"/>
<path d="M541.29 452.47C544.059 452.47 546.766 453.291 549.068 454.829C551.37 456.368 553.165 458.554 554.224 461.112C555.284 463.671 555.561 466.486 555.021 469.201C554.481 471.917 553.147 474.412 551.19 476.37C549.232 478.327 546.737 479.661 544.021 480.201C541.306 480.741 538.491 480.464 535.932 479.404C533.374 478.345 531.188 476.55 529.649 474.248C528.111 471.946 527.29 469.239 527.29 466.47C527.29 462.757 528.765 459.196 531.391 456.57C534.016 453.945 537.577 452.47 541.29 452.47ZM527.88 502.82C527.88 495.65 530.82 489.4 541.29 489.4C551.76 489.4 554.71 495.65 554.71 502.82V576.87C554.71 584.03 551.77 590.28 541.29 590.28C530.81 590.28 527.88 584.03 527.88 576.87V502.82Z" fill="white"/>
<path d="M613.14 481H584.66C576 481 569 476.54 569 468.27C569 460 576 455.59 584.62 455.59H671.71C680.35 455.59 687.33 460 687.33 468.27C687.33 476.54 680.33 480.95 671.71 480.95H643.27V575.21C643.27 584.21 637.39 590.28 628.21 590.28C619.03 590.28 613.14 584.22 613.14 575.21V481Z" fill="white"/>
<path d="M697.84 544.89C697.84 559.04 707.03 569.33 722.65 569.33C742.86 569.33 742.86 556.1 753.7 556.1C760.13 556.1 764.7 561.61 764.7 566.58C764.7 582.75 738.79 590.28 722.62 590.28C685.14 590.28 670.99 564.92 670.99 541.59C670.99 510.35 689.91 489.4 721.7 489.4C752.57 489.4 770.21 511.27 770.21 533.32C770.21 542.51 767.45 544.89 758.45 544.89H697.84ZM744.84 529.46C743.37 517.15 734.18 508.14 722.24 508.14C708.83 508.14 700.74 516.41 697.8 529.46H744.84Z" fill="white"/>
<path d="M832.71 489.4C855.13 489.4 871.85 502.08 871.85 514.58C871.85 522.29 866.15 526.15 859.35 526.15C846.67 526.15 851.27 510.35 831.97 510.35C821.5 510.35 809.19 517.52 809.19 541.77C809.19 558.49 817.09 569.33 831.79 569.33C850.53 569.33 846.49 552.06 860.64 552.06C867.44 552.06 871.85 557.06 871.85 562.35C871.85 574.11 858.62 590.28 831.06 590.28C797.98 590.28 782.36 569.88 782.36 541.77C782.36 510.9 799.82 489.4 832.71 489.4Z" fill="white"/>
<path d="M886.17 466.62C886.17 457.8 891.5 453.2 899.59 453.2C907.68 453.2 913 457.8 913 466.62V503.55H913.37C918.7 496.55 928.07 489.4 943.37 489.4C959.54 489.4 977.18 497.49 977.18 524.68V576.87C977.18 584.03 974.24 590.28 963.77 590.28C953.3 590.28 950.3 584 950.3 576.87V530C950.3 519.16 944.97 511.44 933.4 511.44C927.897 511.556 922.664 513.843 918.842 517.804C915.02 521.765 912.92 527.077 913 532.58V576.87C913 584.03 910.06 590.28 899.59 590.28C889.12 590.28 886.17 584.03 886.17 576.87V466.62Z" fill="white"/>
<path d="M1034.64 460C1035.74 457.06 1037.58 452.47 1044.74 452.47C1048.97 452.47 1054.3 455.96 1054.3 461.84C1054.16 463.929 1053.66 465.978 1052.83 467.9L1008.91 583.48C1007.81 586.42 1005.97 591.01 998.81 591.01C994.58 591.01 989.25 587.52 989.25 581.64C989.392 579.551 989.889 577.502 990.72 575.58L1034.64 460Z" fill="#7232BD"/>
<path d="M1127.79 535.89L1068.63 510C1060.91 506.69 1059.99 502.65 1059.99 498.43C1059.99 492.55 1064.22 488.5 1070.1 488.5C1073.63 488.526 1077.09 489.411 1080.2 491.08L1155 525.42C1157.02 526.321 1158.74 527.789 1159.95 529.648C1161.16 531.506 1161.8 533.674 1161.8 535.89C1161.8 538.106 1161.16 540.274 1159.95 542.132C1158.74 543.991 1157.02 545.459 1155 546.36L1080.21 580.72C1077.1 582.389 1073.64 583.274 1070.11 583.3C1064.23 583.3 1060 579.3 1060 573.37C1060 569.15 1060.92 565.11 1068.64 561.8L1127.79 535.89Z" fill="#7232BD"/>
</svg>

<svg id="Layer_1" data-name="Layer 1" xmlns="http://www.w3.org/2000/svg" xmlns:xlink="http://www.w3.org/1999/xlink" viewBox="0 0 1135.78 351.09"><defs><style>.cls-1{fill:none;stroke:#25d366;stroke-miterlimit:10;stroke-width:22px;}.cls-2{fill:#25d366;}.cls-3{fill:url(#linear-gradient);}.cls-4{fill:#7232bd;}.cls-5{fill:#fcfcfc;}</style><linearGradient id="linear-gradient" y1="338.61" x2="1135.78" y2="338.61" gradientUnits="userSpaceOnUse"><stop offset="0.17" stop-color="#1877f2"/><stop offset="0.17" stop-color="#4261c6"/><stop offset="0.18" stop-color="#694d9d"/><stop offset="0.19" stop-color="#8d3b77"/><stop offset="0.2" stop-color="#ac2b57"/><stop offset="0.21" stop-color="#c61d3b"/><stop offset="0.22" stop-color="#db1225"/><stop offset="0.24" stop-color="#eb0a14"/><stop offset="0.26" stop-color="#f70409"/><stop offset="0.28" stop-color="#fd0102"/><stop offset="0.35" stop-color="red"/><stop offset="0.35" stop-color="#ff0100"/><stop offset="0.38" stop-color="#fe3201"/><stop offset="0.41" stop-color="#fd5d02"/><stop offset="0.44" stop-color="#fc7f03"/><stop offset="0.47" stop-color="#fc9a04"/><stop offset="0.5" stop-color="#fbad05"/><stop offset="0.53" stop-color="#fbb805"/><stop offset="0.56" stop-color="#fbbc05"/><stop offset="0.56" stop-color="#ebbe0c"/><stop offset="0.57" stop-color="#c2c21f"/><stop offset="0.58" stop-color="#9cc630"/><stop offset="0.59" stop-color="#7cca3f"/><stop offset="0.6" stop-color="#60cd4b"/><stop offset="0.61" stop-color="#4acf55"/><stop offset="0.63" stop-color="#39d15d"/><stop offset="0.64" stop-color="#2ed262"/><stop offset="0.67" stop-color="#27d365"/><stop offset="0.74" stop-color="#25d366"/><stop offset="0.74" stop-color="#32c56b"/><stop offset="0.76" stop-color="#54a178"/><stop offset="0.77" stop-color="#728184"/><stop offset="0.79" stop-color="#8b658e"/><stop offset="0.81" stop-color="#a04f96"/><stop offset="0.83" stop-color="#b03e9c"/><stop offset="0.86" stop-color="#bb33a0"/><stop offset="0.89" stop-color="#c12ca2"/><stop offset="1" stop-color="#c32aa3"/></linearGradient></defs><polyline class="cls-1" points="504.31 306.61 589.55 221.25 682.25 242.1 749.98 154.32 823.3 171.98 872.32 64.52"/><polygon class="cls-2" points="898.5 113.14 866.23 77.88 818.45 76.62 901.75 0 898.5 113.14"/><rect class="cls-3" y="326.14" width="1135.78" height="24.95" rx="12.47"/><path class="cls-4" d="M69.64,535.89l59.17,25.91c7.71,3.31,8.63,7.35,8.63,11.57,0,5.88-4.22,9.93-10.1,9.93a21.69,21.69,0,0,1-10.11-2.58L42.45,546.36a11.46,11.46,0,0,1,0-20.94l74.78-34.36a21.69,21.69,0,0,1,10.11-2.58c5.88,0,10.1,4,10.1,9.93,0,4.22-.92,8.26-8.63,11.57Z" transform="translate(-32.8 -273.5)"/><path class="cls-5" d="M155.08,468.09c0-12.13,8.27-14.89,16.35-14.89h8.82c9.37,0,13.78,3.68,16.91,13.79l26.27,84.89h.37L249.71,467c3.12-10.11,7.53-13.79,16.9-13.79h8.45c8.09,0,16.36,2.76,16.36,14.89V575.58c0,7.53-3.68,14.7-13.42,14.7s-13.41-7.17-13.41-14.7v-82h-.37l-28.11,87.83c-2,6.25-6.62,8.82-12.86,8.82s-10.84-2.57-12.86-8.82l-28.12-87.83h-.37v82c0,7.53-3.67,14.7-13.41,14.7s-13.41-7.17-13.41-14.7Z" transform="translate(-32.8 -273.5)"/><path class="cls-5" d="M406.44,576.87c0,8.08-3.68,13.41-12.13,13.41s-12.13-5.33-12.13-13.41v-3.5h-.37c-7.53,9.93-17.27,16.91-32.52,16.91-16.17,0-33.81-8.09-33.81-35.28V502.82c0-7.17,2.94-13.42,13.41-13.42s13.42,6.25,13.42,13.42v46.85c0,10.84,5.33,18.56,16.9,18.56a20.84,20.84,0,0,0,20.4-21.13V502.82c0-7.17,2.94-13.42,13.41-13.42s13.42,6.25,13.42,13.42Z" transform="translate(-32.8 -273.5)"/><path class="cls-5" d="M463.76,489.4c20.4,0,41,8.09,41,20.4,0,6.25-4.22,11.76-11.2,11.76-10.48,0-10.84-12.31-27.75-12.31-9.37,0-15.43,2.57-15.43,8.27,0,6.24,6.06,7.71,14.33,9.55l11.21,2.57c15.25,3.49,33.44,9.93,33.44,28.67,0,21.86-21.13,32-41.34,32-24.26,0-44.47-10.84-44.47-24.07,0-5.88,3.31-11.21,10.84-11.21,11.58,0,12.68,16.54,32.52,16.54,9.56,0,15.62-4.23,15.62-9.74,0-6.8-5.88-7.9-15.43-10.29l-15.81-3.86c-15.61-3.86-27.74-10.29-27.74-28.3C423.52,497.49,445.2,489.4,463.76,489.4Z" transform="translate(-32.8 -273.5)"/><path class="cls-5" d="M541.29,452.47a14,14,0,1,1-14,14A14,14,0,0,1,541.29,452.47Zm-13.41,50.35c0-7.17,2.94-13.42,13.41-13.42s13.42,6.25,13.42,13.42v74.05c0,7.16-2.94,13.41-13.42,13.41s-13.41-6.25-13.41-13.41Z" transform="translate(-32.8 -273.5)"/><path class="cls-5" d="M613.14,481H584.66C576,481,569,476.54,569,468.27s7-12.68,15.62-12.68h87.09c8.64,0,15.62,4.41,15.62,12.68s-7,12.68-15.62,12.68H643.27v94.26c0,9-5.88,15.07-15.06,15.07s-15.07-6.06-15.07-15.07Z" transform="translate(-32.8 -273.5)"/><path class="cls-5" d="M697.84,544.89c0,14.15,9.19,24.44,24.81,24.44,20.21,0,20.21-13.23,31.05-13.23,6.43,0,11,5.51,11,10.48,0,16.17-25.91,23.7-42.08,23.7-37.48,0-51.63-25.36-51.63-48.69,0-31.24,18.92-52.19,50.71-52.19,30.87,0,48.51,21.87,48.51,43.92,0,9.19-2.76,11.57-11.76,11.57Zm47-15.43c-1.47-12.31-10.66-21.32-22.6-21.32-13.41,0-21.5,8.27-24.44,21.32Z" transform="translate(-32.8 -273.5)"/><path class="cls-5" d="M832.71,489.4c22.42,0,39.14,12.68,39.14,25.18,0,7.71-5.7,11.57-12.5,11.57-12.68,0-8.08-15.8-27.38-15.8-10.47,0-22.78,7.17-22.78,31.42,0,16.72,7.9,27.56,22.6,27.56,18.74,0,14.7-17.27,28.85-17.27,6.8,0,11.21,5,11.21,10.29,0,11.76-13.23,27.93-40.79,27.93-33.08,0-48.7-20.4-48.7-48.51C782.36,510.9,799.82,489.4,832.71,489.4Z" transform="translate(-32.8 -273.5)"/><path class="cls-5" d="M886.17,466.62c0-8.82,5.33-13.42,13.42-13.42S913,457.8,913,466.62v36.93h.37c5.33-7,14.7-14.15,30-14.15,16.17,0,33.81,8.09,33.81,35.28v52.19c0,7.16-2.94,13.41-13.41,13.41S950.3,584,950.3,576.87V530c0-10.84-5.33-18.56-16.9-18.56A20.84,20.84,0,0,0,913,532.58v44.29c0,7.16-2.94,13.41-13.41,13.41s-13.42-6.25-13.42-13.41Z" transform="translate(-32.8 -273.5)"/><path class="cls-4" d="M1034.64,460c1.1-2.94,2.94-7.53,10.1-7.53,4.23,0,9.56,3.49,9.56,9.37a18.4,18.4,0,0,1-1.47,6.06l-43.92,115.58c-1.1,2.94-2.94,7.53-10.1,7.53-4.23,0-9.56-3.49-9.56-9.37a18.4,18.4,0,0,1,1.47-6.06Z" transform="translate(-32.8 -273.5)"/><path class="cls-4" d="M1127.79,535.89,1068.63,510c-7.72-3.31-8.64-7.35-8.64-11.57,0-5.88,4.23-9.93,10.11-9.93a21.68,21.68,0,0,1,10.1,2.58L1155,525.42a11.46,11.46,0,0,1,0,20.94l-74.79,34.36a21.68,21.68,0,0,1-10.1,2.58c-5.88,0-10.11-4-10.11-9.93,0-4.22.92-8.26,8.64-11.57Z" transform="translate(-32.8 -273.5)"/></svg>
